X:4
%
%%sysstaffsep    55pt
%%systemsep      125pt
%%topmargin      3.0cm
M:3/8
L:1/8
K:Gminor
%
V:F clef=treble        space=+10pt bracket=2
V:B clef=bass          
Q:"(Allegro)"
[V:F] z/ d/g/d/B/G/ | ^f/a/d'/a/f/d/ |\
	b/d/g/d/B/G/ | e/g/c'/g/e/c/ | A/c/f/c/A/F/ |
[V:B] gBG | d^FD | gBG | c'ec | fAF |
[V:F] d/f/b/f/d/B/ | g/B/e/B/G/e/ |\
	A/c/f/c/A/e/ | d/f/b/f/d/b/ | g/b/e'/b/g/e/ |
[V:B] bdB | eGE | fAF | bdB | e'ge |
[V:F] abd | cba | b2 z |\
	z/ d/g/d/=B/g/ | =e/g/a/e/c/a/ |
[V:B] f"6"dB | "6\n5"e"4"f"3"F | "6\n4"z/ f/b/f/d/f/ |\
	"6"=B2 z | "\="c2 z |
[V:F] ^f/a/d'/a/f/d/ | b/d/g/d/B/G/ |\
	^c/=e/a/e/c/A/ | a/d/ f/=ed/ | d3 ::
[V:B] "#"d2 z | gBG | "#"Aag | "6"f/g/"6\n4"a"5\n3#"A | "\="d3 ::
[V:F] z/ d/^f/a/c/a/ | B/d/g/=b/f/d'/ |\
	=e/G/c/e/B/g/ | A/c/f/a/_e/c'/ | d/f/b/d'/b/f/ |
[V:B] "6"^fd"5"f | "b"g"\="G"5"=B |\
	"\="c=e"7"c | fF"5b"A | Bbd' |
[V:F] g/B/e/g/e/c/ | A/B/ TA3/2G//A// |\
	B2 z | z/ d/g/=b/f/d'/ | _e/g/c'/g/e/c/ |
[V:B] e'e"6"e | f/B/fF | "6\n4"z/ f/b/d'/f'/d'/ |\
	"6"=bgb | c'ec |
[V:F] A/c/f/a/e/c'/ | d/f/b/f/d/B/ |\
	g/b/e'/b/g/e/ | c/g/c'/e'/c'/a/ |
[V:B] fF"5"A | BdB | eGE | "6"ece' |
[V:F] ^f/a/d'/a/f/d/ | b/d/g/d/B/G/ |\
	e/g/c'/g/e/c/ | ^f/g/ A>G | G3 :|
[V:B] d'^fd | gBG | c'ec | "#"d/G/dD | G3 :|
